icons/evolvere-blue-folders-flat-vivid-dark-fallback/actions/64/get-hot-new-stuff.svg

<?xml version="1.0" encoding="UTF-8" standalone="no"?>
<!-- Created with Inkscape (http://www.inkscape.org/) -->

<svg
   xmlns:dc="http://purl.org/dc/elements/1.1/"
   xmlns:cc="http://creativecommons.org/ns#"
   xmlns:rdf="http://www.w3.org/1999/02/22-rdf-syntax-ns#"
   xmlns:svg="http://www.w3.org/2000/svg"
   xmlns="http://www.w3.org/2000/svg"
   xmlns:sodipodi="http://sodipodi.sourceforge.net/DTD/sodipodi-0.dtd"
   xmlns:inkscape="http://www.inkscape.org/namespaces/inkscape"
   width="64"
   height="64"
   id="svg13094"
   version="1.1"
   inkscape:version="0.91+devel r"
   sodipodi:docname="get-hot-new-stuff.svg">
  <sodipodi:namedview
     id="base"
     pagecolor="#ffffff"
     bordercolor="#666666"
     borderopacity="1.0"
     inkscape:pageopacity="0"
     inkscape:pageshadow="2"
     inkscape:zoom="8.0000004"
     inkscape:cx="28.897885"
     inkscape:cy="33.951854"
     inkscape:document-units="px"
     inkscape:current-layer="svg13094"
     showgrid="true"
     inkscape:snap-bbox="true"
     inkscape:bbox-paths="true"
     inkscape:bbox-nodes="true"
     inkscape:snap-bbox-edge-midpoints="true"
     inkscape:snap-bbox-midpoints="true"
     inkscape:object-paths="true"
     inkscape:snap-intersection-paths="true"
     inkscape:object-nodes="true"
     inkscape:snap-smooth-nodes="true"
     inkscape:snap-midpoints="true"
     inkscape:snap-object-midpoints="true"
     inkscape:snap-center="true"
     showguides="true"
     inkscape:guide-bbox="true"
     inkscape:window-width="1920"
     inkscape:window-height="1023"
     inkscape:window-x="-10"
     inkscape:window-y="35"
     inkscape:window-maximized="1"
     inkscape:snap-global="true"
     fit-margin-top="0"
     fit-margin-left="0"
     fit-margin-right="0"
     fit-margin-bottom="0"
     showborder="true"
     inkscape:showpageshadow="false"
     inkscape:snap-page="true">
    <inkscape:grid
       type="xygrid"
       id="grid3075"
       empspacing="5"
       visible="true"
       enabled="true"
       snapvisiblegridlinesonly="true"
       originx="1.6362304e-08px"
       originy="18px" />
  </sodipodi:namedview>
  <defs
     id="defs13096" />
  <metadata
     id="metadata13099">
    <rdf:RDF>
      <cc:Work
         rdf:about="">
        <dc:format>image/svg+xml</dc:format>
        <dc:type
           rdf:resource="http://purl.org/dc/dcmitype/StillImage" />
        <dc:title></dc:title>
      </cc:Work>
    </rdf:RDF>
  </metadata>
  <path
     id="path4162"
     d="m 0,4 0,30 0,28 2,2 30,0 30,0 2,-2 L 64,34 64,4 32,4 0,4 Z"
     style="color:#000000;display:inline;overflow:visible;visibility:visible;fill:#663c73;fill-opacity:1;fill-rule:nonzero;stroke:none;stroke-width:2.28571415;marker:none;enable-background:accumulate"
     inkscape:connector-curvature="0" />
  <path
     style="color:#000000;display:inline;overflow:visible;visibility:visible;fill:#f7df9b;fill-opacity:0.1744186;fill-rule:nonzero;stroke:none;stroke-width:4.67059469;marker:none;enable-background:accumulate"
     d="M 23.972656 4 C 21.466355 9.5084747 19.166305 14.57484 18.755859 14.873047 C 18.186213 15.286921 8.2471162 16.284131 0 17.269531 L 0 30.048828 C 5.2150985 34.829427 10.390654 39.511521 10.570312 40.064453 C 10.839758 40.893719 7.5246358 55.644303 6.0410156 64 L 16.699219 64 C 23.651743 60.094839 31.337029 55.632812 32 55.632812 C 32.662969 55.632812 40.348257 60.094839 47.300781 64 L 57.958984 64 C 56.475364 55.644303 53.160242 40.89372 53.429688 40.064453 C 53.609346 39.511522 58.784901 34.829427 64 30.048828 L 64 17.269531 C 55.752884 16.284131 45.813787 15.286921 45.244141 14.873047 C 44.833695 14.57484 42.533645 9.5084747 40.027344 4 L 32 4 L 23.972656 4 z "
     id="path4159" />
  <path
     style="color:#000000;fill:#ba8896;fill-opacity:1;fill-rule:nonzero;stroke:none;marker:none;visibility:visible;display:inline;overflow:visible;enable-background:accumulate;stroke-width:1"
     d="M 2 0 L 0 1 L 0 4 L 32 4 L 64 4 L 64 1 L 62 0 L 32 0 L 2 0 z "
     id="path6502" />
  <path
     style="fill:#c89fab;fill-opacity:1;fill-rule:nonzero"
     d="M 0,3 0,6 2,4 Z"
     id="path4298"
     inkscape:connector-curvature="0"
     sodipodi:nodetypes="cccc" />
  <path
     d="M 64,6 62,4 64,3 z"
     id="path3028"
     style="fill:#926485;fill-opacity:1"
     inkscape:connector-curvature="0" />
  <g
     id="g3043"
     inkscape:export-filename="folder.png"
     inkscape:export-xdpi="90"
     inkscape:export-ydpi="90"
     transform="translate(-0.62500009,0.082283)" />
  <g
     id="scalable"
     transform="matrix(1.0385892,0,0,1.0385892,1214.7222,1878.8121)"
     inkscape:label="#g3701"
     style="fill:#ffffff" />
  <path
     inkscape:connector-curvature="0"
     style="color:#000000;display:inline;overflow:visible;visibility:visible;fill:#ffde7f;fill-opacity:1;fill-rule:nonzero;stroke:none;stroke-width:2.28571415;marker:none;enable-background:accumulate"
     inkscape:transform-center-y="-2.1066334"
     d="m 32.000003,10.977284 c 0.588329,0 6.005352,12.857427 6.481321,13.203239 0.475969,0.345813 14.378061,1.524544 14.559866,2.08408 0.181804,0.559536 -10.372384,9.684593 -10.554188,10.244128 -0.181805,0.559536 2.993138,14.14546 2.517169,14.491271 -0.47597,0.345812 -12.415839,-6.872019 -13.004169,-6.872019 -0.588331,0 -12.528201,7.21783 -13.00417,6.872019 -0.47597,-0.345812 2.698974,-13.931735 2.517169,-14.49127 -0.181804,-0.559536 -10.735992,-9.684594 -10.554188,-10.24413 0.181805,-0.559536 14.083897,-1.738266 14.559866,-2.084079 0.475969,-0.345812 5.892993,-13.203239 6.481324,-13.203239 z"
     id="path4166" />
  <path
     style="color:#000000;display:inline;overflow:visible;visibility:visible;fill:#f7df9b;fill-opacity:0.1744186;fill-rule:nonzero;stroke:none;stroke-width:4.67059469;marker:none;enable-background:accumulate"
     d="M 25.806641 0 C 25.159444 1.41313 24.606042 2.6079143 23.972656 4 L 32 4 L 40.027344 4 C 39.393959 2.6079143 38.840555 1.41313 38.193359 0 L 32 0 L 25.806641 0 z "
     id="path4159-9" />
</svg>

<svg xmlns="http://www.w3.org/2000/svg" viewBox="0 0 64 64"><g color="#000"><path d="m0 4v30 28l2 2h30 30l2-2v-28-30h-32-32" fill="#663c73"/><path d="m23.973 4c-2.506 5.508-4.806 10.575-5.217 10.873-.57.414-10.509 1.411-18.756 2.396v12.779c5.215 4.781 10.391 9.463 10.57 10.02.269.829-3.046 15.58-4.529 23.936h10.658c6.953-3.905 14.638-8.367 15.301-8.367.663 0 8.348 4.462 15.301 8.367h10.658c-1.484-8.356-4.799-23.11-4.529-23.936.18-.553 5.355-5.235 10.57-10.02v-12.779c-8.247-.985-18.19-1.983-18.756-2.396-.41-.298-2.71-5.365-5.217-10.873h-8.03-8.03" fill="#f7df9b" fill-opacity=".174"/><path d="m2 0l-2 1v3h32 32v-3l-2-1h-30-30" fill="#ba8896"/></g><path d="m0 3v3l2-2" fill="#c89fab"/><path d="m64 6l-2-2 2-1z" fill="#926485"/><g color="#000"><path d="m32 10.977c.588 0 6.01 12.857 6.481 13.203.476.346 14.378 1.525 14.56 2.084.182.56-10.372 9.685-10.554 10.244-.182.56 2.993 14.15 2.517 14.491-.476.346-12.416-6.872-13-6.872-.588 0-12.528 7.218-13 6.872-.476-.346 2.699-13.932 2.517-14.491-.182-.56-10.736-9.685-10.554-10.244.182-.56 14.08-1.738 14.56-2.084.476-.346 5.893-13.203 6.481-13.203" fill="#ffde7f"/><path d="m25.807 0c-.647 1.413-1.201 2.608-1.834 4h8.03 8.03c-.633-1.392-1.187-2.587-1.834-4h-6.193-6.193" fill="#f7df9b" fill-opacity=".174"/></g></svg>
